X: 1913
T: Uşşak Seyir
C: Rauf Yektâ
O: Turkey
F: http://compmusic.upf.edu/node/140
N: ussak--seyir--semai--1--rauf_yekta
N: makam= ussak
N: form= seyir
N: usul= semai = 3/4
M: 3/4
L: 1/16
K: C _2/4B   
Q: 1/4=120
%%MIDI tuningsystem comma53
G8 A4  | A8 A4  | A8 B4  | G8 z4  | A8 B4  | d4 c4 B4  | \
w:   |   |   |   |   |   | 
B8 A4  | G4 ^F8  | G8 A4  | A8 A4  | 
w:   |   |   |   | 
A8 B4  | G8 z4  | A8 B4  | d4 c4 B4  | B4 A4 G4  | \
w:   |   |   |   |   | 
A8 z4  | A8 B4  | c4 B4 A4  | G8 ^3/4F4  | 
w:   |   |   |   | 
E8 D4  | ^3/4F8 G4  | A8 B4  | G8 A4  | A8 z4  | \
w:   |   |   |   |   | 
A8 d4  | c4 d8  | e8 f4  | d8 z4  | a4 g4 f4  | 
w:   |   |   |   |   | 
e4 d8  | c8 B4  | A8 z4  | G4 A4 B4  | c4 d4 e4  | \
w:   |   |   |   |   | 
f4 e4 d4  | c4 B4 A4  | G8 e4  | d8 c4  | 
w:   |   |   |   | 
B4 A4 G4  | A8 z4  | |


